X: 108
T: No_36_Song_of_the_Exhausted_Warrior.krn
%%abc-version 2.0
%%abcx-abcm2ps-target-version 5.9.1 (29 Sep 2008)
%%abc-creator hum2abc beta
%%abcx-conversion-date 2020/08/10 18:54:56
%%gracespace 0 6 6
%%humdrum-veritas 2566741284
%%humdrum-veritas-data 2658784473
%%linebreak <none>
%%barnumbers 0
L: 1/8
M: 3/4
%%staves {1 2}
V: 1 clef=bass
V: 2 clef=bass
K: F
[V:1] F/ [I:setbarnb 1]| 
[V:2] z/ | 
[V:1] F>D D>D D^C ||  
[V:2] G,,G,, G,,G,, G,,G,, ||  
[V:1] [M:2/4]D/D/C/>C/A,2 | 
[V:2] [M:2/4]z4 | 
[V:1] C2A,3/F,/ ||  
[V:2] z4 ||  
[V:1] [M:3/4]F>D D>D D^C ||  
[V:2] [M:3/4]z6 ||  
[V:1] [M:2/4]D/D/C/>C/A,2 | 
[V:2] [M:2/4]z4 | 
[V:1] C2A,3/D/ ||  
[V:2] z4 ||  
[V:1] [M:3/4]D>D C>C A,F, ||  
[V:2] [M:3/4]z6 ||  
[V:1] [M:2/4]A,/>D,/D, D,/>C,/C,/A,,/ | 
[V:2] [M:2/4]z4 | 
[V:1] D,D,D,2- | 
[V:2] z4 | 
[V:1] D,7/A,/ | 
[V:2] z4 | 
[V:1] A,>C C3/A,/ | 
[V:2] z4 | 
[V:1] A,G, F,3/D,/ | 
[V:2] z4 | 
[V:1] D,D, (3:2:4D,D,C,/A,,/ ||  
[V:2] z4 ||  
[V:1] [M:3/4]C,C,D,4 ||  
[V:2] [M:3/4]z6 ||  
[V:1] [M:2/4]D,D, F,3/D,/ | 
[V:2] [M:2/4]z4 | 
[V:1] D,A,,A,,2 | 
[V:2] z4 | 
[V:1] D,D, F,3/D,/ | 
[V:2] z4 | 
[V:1] D,>A,, A,,D, | 
[V:2] z4 | 
[V:1] D,4- | 
[V:2] z4 | 
[V:1] D,4 |]  
[V:2] z4 |]  


